Newaita-dark/actions/22/format-justify-center.svg

<svg height="22" viewBox="0 0 22 22" width="22" xmlns="http://www.w3.org/2000/svg"><g fill="#e0e0e0"><path d="m19.554688 4.71875h-17.28125c-.25 0-.453126-.203125-.453126-.453125v-.910156c0-.25.203126-.453125.453126-.453125h17.28125c.253906 0 .457031.203125.457031.453125v.910156c0 .25-.203125.453125-.457031.453125zm0 0"/><path d="m16.828125 19.726562h-11.824219c-.253906 0-.457031-.203124-.457031-.453124v-.910157c0-.25.203125-.453125.457031-.453125h11.824219c.25 0 .453125.203125.453125.453125v.910157c0 .25-.203125.453124-.453125.453124zm0 0"/><path d="m16.828125 14.726562h-11.824219c-.253906 0-.457031-.203124-.457031-.457031v-.910156c0-.25.203125-.453125.457031-.453125h11.824219c.25 0 .453125.203125.453125.453125v.910156c0 .253907-.203125.457031-.453125.457031zm0 0"/><path d="m16.828125 9.722656h-11.824219c-.253906 0-.457031-.203125-.457031-.453125v-.910156c0-.253906.203125-.457031.457031-.457031h11.824219c.25 0 .453125.203125.453125.457031v.910156c0 .25-.203125.453125-.453125.453125zm0 0"/></g></svg>

<svg xmlns="http://www.w3.org/2000/svg" xmlns:xlink="http://www.w3.org/1999/xlink" width="22px" height="22px" viewBox="0 0 22 22" version="1.1">
<g id="surface1">
     <defs>
  <style id="current-color-scheme" type="text/css">
   .ColorScheme-Text { color:#eeeeee; } .ColorScheme-Highlight { color:#424242; }
  </style>
 </defs>
<path style="fill:currentColor" class="ColorScheme-Text" d="M 19.554688 4.71875 L 2.273438 4.71875 C 2.023438 4.71875 1.820312 4.515625 1.820312 4.265625 L 1.820312 3.355469 C 1.820312 3.105469 2.023438 2.902344 2.273438 2.902344 L 19.554688 2.902344 C 19.808594 2.902344 20.011719 3.105469 20.011719 3.355469 L 20.011719 4.265625 C 20.011719 4.515625 19.808594 4.71875 19.554688 4.71875 Z M 19.554688 4.71875 "/>
     <defs>
  <style id="current-color-scheme" type="text/css">
   .ColorScheme-Text { color:#eeeeee; } .ColorScheme-Highlight { color:#424242; }
  </style>
 </defs>
<path style="fill:currentColor" class="ColorScheme-Text" d="M 16.828125 19.726562 L 5.003906 19.726562 C 4.75 19.726562 4.546875 19.523438 4.546875 19.273438 L 4.546875 18.363281 C 4.546875 18.113281 4.75 17.910156 5.003906 17.910156 L 16.828125 17.910156 C 17.078125 17.910156 17.28125 18.113281 17.28125 18.363281 L 17.28125 19.273438 C 17.28125 19.523438 17.078125 19.726562 16.828125 19.726562 Z M 16.828125 19.726562 "/>
     <defs>
  <style id="current-color-scheme" type="text/css">
   .ColorScheme-Text { color:#eeeeee; } .ColorScheme-Highlight { color:#424242; }
  </style>
 </defs>
<path style="fill:currentColor" class="ColorScheme-Text" d="M 16.828125 14.726562 L 5.003906 14.726562 C 4.75 14.726562 4.546875 14.523438 4.546875 14.269531 L 4.546875 13.359375 C 4.546875 13.109375 4.75 12.90625 5.003906 12.90625 L 16.828125 12.90625 C 17.078125 12.90625 17.28125 13.109375 17.28125 13.359375 L 17.28125 14.269531 C 17.28125 14.523438 17.078125 14.726562 16.828125 14.726562 Z M 16.828125 14.726562 "/>
     <defs>
  <style id="current-color-scheme" type="text/css">
   .ColorScheme-Text { color:#eeeeee; } .ColorScheme-Highlight { color:#424242; }
  </style>
 </defs>
<path style="fill:currentColor" class="ColorScheme-Text" d="M 16.828125 9.722656 L 5.003906 9.722656 C 4.75 9.722656 4.546875 9.519531 4.546875 9.269531 L 4.546875 8.359375 C 4.546875 8.105469 4.75 7.902344 5.003906 7.902344 L 16.828125 7.902344 C 17.078125 7.902344 17.28125 8.105469 17.28125 8.359375 L 17.28125 9.269531 C 17.28125 9.519531 17.078125 9.722656 16.828125 9.722656 Z M 16.828125 9.722656 "/>
</g>
</svg>
